X:1
T:Title
%%score { ( 1 3 ) | ( 2 4 ) }
L:1/8
M:4/4
K:Ab
V:1 treble nm="Grand Piano"
V:3 treble 
V:2 bass 
V:4 bass 
V:1
 z4 z2[Q:1/4=100] E2 | z2 [EA]2 z4 | z2 [EA]2 z4 | A2 c>B A2 c2 |[M:3/4] [Ge]2 [GB]2 [GB]2 | %5
[M:1/4] E2 |[M:4/4] z2 [EGB]2 z4 | z2 [EGB]2 z4 | B2 d>[Cc] [GB]2 [Gd]2 | %9
[M:3/4] [Af]2 [Ae]2 [Ec]2 |[M:1/4] [Ec]>[Ec] |[M:4/4] [=Ec]4 .[EG]2 [Ec]>[Ec] | c4 .A2 c>c | %13
 c2 B2 A2 [FB]2 |[M:9/8] [=Ec]8- [Ec] |[M:1/4] [ce]>[df] |[M:4/4] [ce]2 [Bd]2 z2 [Bd]>e | %17
 [EBd]2 [EAc]2 E2 [Ac]>d | [EAc]2 [DGB]2 D2 [GB]>c | [CGB]2 [CFA]2 z2 A>A | %20
 [Ff]3 [Ff] [EB]2 [EB]2 | [Ee]3 [_Ge] [Fd]2 [FB]2 | z4 G4 |[M:3/4] [CA]6 |] %24
V:2
 z4 z2 [E,,E,]2 | [A,,A,]2 [C,C]>B,, A,,2 E,,2 | A,,2 C,>B,, A,,2 E,2 | %3
 [A,CE]2 [A,CE]2 [A,CE]2 [A,CE]2 |[M:3/4] [E,B,]2 [E,E]2 [E,E]2 |[M:1/4] [E,,E,]2 | %6
[M:4/4] [B,,B,]2 [D,D]>C, B,,2 E,,2 | B,,2 D,>C, B,,2 E,2 | [E,G,E]2 [E,B,]2 [E,D]2 [E,B,]2 | %9
[M:3/4] [A,C]2 [A,C]2 [A,,A,]2 |[M:1/4] [A,,A,]>[A,,A,] |[M:4/4] [C,G,]4 .[C,C]2 [C,G,]>[C,G,] | %12
 [F,A,F]4 .[F,CF]2 C>C | [C,C]2 [B,,B,]2 [A,,A,]2 [D,F,]2 |[M:9/8] [C,G,]8- [C,G,] | %15
[M:1/4] [E,E]>[E,E] |[M:4/4] [E,E]2 [E,E]2 [E,E]2 z z/[K:treble] c/ | z4 z2 [E,E]2[K:treble] | %18
 z4 z2 [E,D]2 | F,2 F,2 z2 A,>A, | [D,A,]3 [D,A,] [D,G,]2 [D,G,]2 | [C,A,]3 [C,A,] [D,B,]2 [D,D]2 | %22
 [E,CE]4 .E2 z2 |[M:3/4] [A,,A,]6 |] %24
V:3
 x8 | [CEA]2 z z/ B,/ [A,CEA]2 [E,E]2 | [A,CEA]2 C>B, [A,CEA]2 E2 | x8 |[M:3/4] x6 |[M:1/4] x2 | %6
[M:4/4] [EGB]2 z z/ C/ [B,EGB]2 [E,E]2 | [B,EGB]2 D>C [B,EGB]2 E2 | z2 G2 z4 |[M:3/4] x6 | %10
[M:1/4] x2 |[M:4/4] x8 | x8 | x8 |[M:9/8] x9 |[M:1/4] x2 |[M:4/4] x8 | x8 | x8 | x8 | x8 | x8 | %22
 A4 z FED |[M:3/4] x6 |] %24
V:4
 x8 | x8 | x8 | x8 |[M:3/4] x6 |[M:1/4] x2 |[M:4/4] x8 | x8 | x8 |[M:3/4] x6 |[M:1/4] x2 | %11
[M:4/4] x8 | x8 | x8 |[M:9/8] x9 |[M:1/4] x2 |[M:4/4] z4 z2 [E,E]2[K:treble] | %17
 E,2 E,2 E,2 z z/[K:treble] B/ | E,2 E,2 E,2 z z/ G/ | x8 | x8 | x8 | z4 [E,B,]4 |[M:3/4] x6 |] %24

